X:1
T:Young Men In Their Bloom (jig)
M:6/8
L:1/8
O:Trad. (3.9.2014/NS)
R:march
K:Emin
|:B|"Em"EGE GFG|BAB e2f|"C"gfe dcB|"D"ABG FED|
"Em"EGE GFG|BAB e2f|"C"gfe dcB|"D"AGF "Em"E2:|
|:B|"Em"EGE B2B|EGE  B^cd|"D"DED A2A|DED AGF|
"Em"EGE B2B|EGE  e2f|"C"gfe dcB|"D"AGF "Em"E2:|
